X: 1
T:AINSI SUITE
M:6/8
L:1/8
Q:1/4=119
C:Yves BELOTTEAU
R:Rondeau
K:G
d|e2dc2c|ABcB2B|GABA2A|DdcB2d|e2dc2c|ABcBzd|e2dfed|cBAG3|!
|:DGBA2A|DAcB2B|GBdc2c|Aced3|DGBA2A|DAcBzd|e2dfed|cBAG3:|
